X:1
T:Le célèbre Menuet d'Exaundet
T:W Peterson-Berger (1867-1942)
T:Le célèbre Menuet d'Exaudet
T:©CPDL Edition may be freely distributed, duplicated, performed and recorded PA Aglert
T:©CPDL Edition may be freely distributed, duplicated, performed and recorded PA Aglert
T:©CPDL Edition may be freely distributed, duplicated, performed and recorded PA Aglert
C:W Peterson-Berger (1867-1942)
Z:©CPDL Edition may be freely distributed, duplicated, performed and recorded
Z:PA Aglert
%%score [ 1 2 3 4 ]
L:1/8
Q:1/4=92
M:3/4
K:A
V:1 treble nm="S"
V:2 treble nm="A"
V:3 treble-8 nm="T"
V:4 bass nm="B"
V:1
|: AA A4 | BB B4 | d4 c2 | B4 A2 | (GB) dB cA | B2 E2 (Ac) | e2 G2 (Ac) | (cB AG) (FE) | AA A4 | %9
w: Cet é- tang|qui s'é- tend|dans la|plui- ne|ré- * pè- te les or-|meaux où le *|pam- pre s'en- *|chai- * * * ne, *|un ciel pur|
 BB B4 | d4 c2 | B4 A2 | GB dB cA | B2 E3 E | Fd (c2 B2) |1 A4 z2 ||2 A4 z2!fine! |] AA AA AA | %18
w: un a- zur|sans nu-|a- ges|en- ri- chit le tab- leau|de son lim-|pide i- ma- *|ge.|ge.|Mais tan- dis que l'on ad-|
 A4 A2 | dc BA Ge | c4 B2 | BA GB AA | AG FA GG | (EF GA) (Bc) | (^de/d/ cB) e2 | B2 B2 B2 | %26
w: mi- re|cette onde où le ciel sa|mi- re|un ze- phir vient ter- nir,|un ze- phir vient ter- nir|sa * * * sur- *|fa- * * * * ce|l'e- clat de|
 B4 B2 | BA (G2 F>E) | (Ed cB AG)!D.C.! :| %29
w: tant d'ob-|jets s'ef- fa- * *|ce. * * * * *|
V:2
|: EE E4 | EE E4 | A4 A2 | E4 E2 | E2 G2 AC | EE G2 A2 | E2 E2 E2 | (F2 E2) (A,B,) | z2 EE E2 | %9
w: Cet é- tang|qui s'é- tend|dans la|plui- ne|ré- pè- te les|or- meaux où le|pam- pre s'en-|chai- * ne, *|un ciel pur|
 z2 GG G2 | A4 A2 | E4 E2 | E2 G2 AC | (E^D) =DE CE | DF (E2 D2) |1 C4 z2 ||2 C4 z2 |] EC A,C EA | %18
w: un a- zur|sans nu-|a- ges|en- ri- chit le|tab- * leau de son lim-|pide i- ma- *|ge.|ge.|Mais tan- dis que l'on ad-|
 F4 E2 | DE FF EG | A4- AG | GF ^EG FF | FE ^DF EE | E4 E2 | F4 E2 | ^DF AF GE | ^DF AF GE | %27
w: mi- re|cette onde où le ciel sa|mi- * re|un ze- phir vient ter- nir,|un ze- phir vient ter- nir|sa sur-|fa- ce|d'un souffle il con- fonds les|traits, l'e- clat de tant d'ob-|
 CC (B,2 ^D>E) | E6 :| %29
w: jets s'ef- fa- * *|ce.|
V:3
|: cc c4 | dd d4 | f4 e2 | d4 c2 | B2 e2 e2 | GB (dB) cA | B2 E3 A | d4 d2 | cc c4 | ee e4 | %10
w: Cet é- tang|qui s'é- tend|dans la|plui- ne|ré- pè- te|les or- meaux * où le|pam- pre s'en-|chai- ne,|un ciel pur|un a- zur|
 f4 e2 | d4 c2 | B2 e2 ee | (GB) dB cA | AB (A2 G2) |1 A4 z2 ||2 A4 z2 |] cc cc cc | d4 c2 | %19
w: sans nu-|a- ges|en- ri- chit le|tab- * leau de son lim-|pide i- ma- *|ge.|ge.|Mais tan- dis que l'on ad-|mi- re|
 F^A BB BB | e4 e2 | cc c4 | BB B4 | A4 G2 | B4 B2 | B2 B2 B2 | B4 (BG) | EE (E2 A>G) | %28
w: cette onde où le ciel sa|mi- re|un ze- phir|vient ter- nir,|sa sur-|fa- ce|l'e- clat de|tant d'ob- *|jets s'ef- fa- * *|
 (Gf ed cB) :| %29
w: ce. * * * * *|
V:4
|: z2 A,,C, E,2 | z2 G,,B,, E,2 | z2 E,2 E,2 | (A,G, F,G,) (A,C,) | E,2 E,2 E,2 | E,2 E,2 E,2 | %6
w: Cet é- tang|qui s'é- tend|dans la|plui- * * * ne *|ré- pè- te|les or- meaux|
 G,,B,, (D,B,,) C,A,, | (D,2 E,2) (F,G,) | z2 A,A, A,2 | z2 E,E, E,2 | z2 A,,2 A,,2 | %11
w: où le pam- * pre s'en-|chai- * ne, *|un ciel pur|un a- zur|sans nu-|
 (A,G, F,G,) (A,C,) | E,2 B,2 A,2 | E,2 G,2 A,C, | D,D, E,4 |1 (A,,C,) E,D, C,B,, ||2 A,,4 z2 |] %17
w: a- * * * ges *|en- ri- chit|le tab- leau de|son i- ma-|ge. * Mais tan- dis que|ge.|
 A,,4 A,,2 | (A,F,) D,F, (A,A,,) | B,,C, D,^D, E,E, | (A,,B,, C,!courtesy!=D,) E,2 | %21
w: l'on ad-|mi- * re cette onde, *|cette onde où le ciel sa|mi- * * * re|
 ^E,F, G,E, F,=E, | ^D,E, F,D, E,=D, | C,4 B,,2 | (A,,2 A,2) G,2 | F,2 B,,2 (E,G,) | %26
w: un ze- phir vient ter- nir,|un ze- phir vient ter- nir|sa sur-|fa- * ce|l'e- clat de *|
 (F,2 B,,2) E,2 | A,,A,, (B,,2- B,,>E,) | E,6 :| %29
w: tant * d'ob-|jets s'ef- fa- * *|ce.|

